icons/media/go-forward-15-24.svg

<svg width="24" height="24" viewBox="0 0 24 24" fill="none" xmlns="http://www.w3.org/2000/svg">
<path d="M10.411 0.580996C10.6631 0.453244 10.9656 0.478064 11.1935 0.6452L14.9435 3.3952C15.1362 3.53648 15.25 3.7611 15.25 4C15.25 4.23891 15.1362 4.46353 14.9435 4.60481L11.1935 7.35481C10.9656 7.52194 10.6631 7.54676 10.411 7.41901C10.1589 7.29126 10 7.03263 10 6.75V4.73663C6.27063 5.63603 3.5 8.99446 3.5 13C3.5 17.6944 7.30558 21.5 12 21.5C16.6944 21.5 20.5 17.6944 20.5 13C20.5 10.6526 19.5494 8.52861 18.0104 6.98959C17.7175 6.6967 17.7175 6.22183 18.0104 5.92893C18.3033 5.63604 18.7782 5.63604 19.0711 5.92893C20.8799 7.73776 22 10.2388 22 13C22 18.5228 17.5228 23 12 23C6.47715 23 2 18.5228 2 13C2 8.16208 5.43552 4.12658 10 3.20004V1.25C10 0.967376 10.1589 0.708748 10.411 0.580996Z" fill="black"/>
<path fill-rule="evenodd" clip-rule="evenodd" d="M11.589 9.75C11.589 9.33579 11.9248 9 12.339 9H16.5161C16.9303 9 17.2661 9.33579 17.2661 9.75C17.2661 10.1642 16.9303 10.5 16.5161 10.5H13.089V12.1649C13.4434 12.0548 13.8354 12 14.2661 12C15.0296 12 15.8276 12.231 16.4508 12.7297C17.0924 13.2433 17.5161 14.0185 17.5161 15C17.5161 16.9547 15.8735 18.25 14.2661 18.25C12.7541 18.25 11.7753 17.2331 11.3283 16.3338C11.144 15.9628 11.2953 15.5127 11.6662 15.3284C12.0371 15.144 12.4873 15.2953 12.6716 15.6662C12.961 16.2486 13.5112 16.75 14.2661 16.75C15.144 16.75 16.0161 16.0306 16.0161 15C16.0161 14.4888 15.8111 14.1391 15.5134 13.9008C15.1972 13.6477 14.7452 13.5 14.2661 13.5C13.7736 13.5 13.4483 13.6006 13.2219 13.7334C12.8774 13.9355 12.4894 13.9073 12.206 13.7784C11.9179 13.6474 11.589 13.334 11.589 12.8458V9.75Z" fill="black"/>
<path d="M9.75001 9.75C9.75001 9.48426 9.60939 9.23836 9.38036 9.1036C9.15133 8.96883 8.86808 8.96533 8.63578 9.09438L6.38578 10.3444C6.02369 10.5455 5.89324 11.0021 6.0944 11.3642C6.29556 11.7263 6.75216 11.8568 7.11425 11.6556L8.25001 11.0246V17.25C8.25001 17.6642 8.5858 18 9.00001 18C9.41423 18 9.75001 17.6642 9.75001 17.25V9.75Z" fill="black"/>
</svg>

<svg xmlns="http://www.w3.org/2000/svg" width="24" height="24"><path d="M10.411.581a.75.75 0 01.783.064l3.75 2.75a.75.75 0 010 1.21l-3.75 2.75A.75.75 0 0110 6.75V4.737a8.5 8.5 0 108.01 2.253.75.75 0 111.061-1.061A9.971 9.971 0 0122 13c0 5.523-4.477 10-10 10S2 18.523 2 13c0-4.838 3.436-8.873 8-9.8V1.25a.75.75 0 01.411-.669z"/><path fill-rule="evenodd" d="M11.589 9.75a.75.75 0 01.75-.75h4.177a.75.75 0 010 1.5H13.09v1.665c.354-.11.746-.165 1.177-.165.764 0 1.562.231 2.185.73.641.513 1.065 1.288 1.065 2.27 0 1.955-1.642 3.25-3.25 3.25-1.512 0-2.49-1.017-2.938-1.916a.75.75 0 011.344-.668c.289.583.84 1.084 1.594 1.084.878 0 1.75-.72 1.75-1.75 0-.511-.205-.86-.503-1.1-.316-.252-.768-.4-1.247-.4-.492 0-.818.1-1.044.233a1.11 1.11 0 01-1.016.045c-.288-.13-.617-.444-.617-.932V9.75z"/><path d="M9.75 9.75a.75.75 0 00-1.114-.656l-2.25 1.25a.75.75 0 10.728 1.312l1.136-.631v6.225a.75.75 0 001.5 0v-7.5z"/></svg>
